assets/icons/icons8-facebook.svg

<?xml version="1.0" encoding="UTF-8"?>
<svg xmlns="http://www.w3.org/2000/svg" xmlns:xlink="http://www.w3.org/1999/xlink" viewBox="0 0 30 30" width="30px" height="30px">
<g id="surface59425599">
<path style=" stroke:none;fill-rule:nonzero;fill:rgb(17.647059%,47.843137%,0.784314%);fill-opacity:1;" d="M 15 3 C 8.371094 3 3 8.371094 3 15 C 3 21.015625 7.433594 25.984375 13.207031 26.851562 L 13.207031 18.179688 L 10.238281 18.179688 L 10.238281 15.027344 L 13.207031 15.027344 L 13.207031 12.925781 C 13.207031 9.453125 14.898438 7.925781 17.785156 7.925781 C 19.171875 7.925781 19.902344 8.03125 20.246094 8.074219 L 20.246094 10.828125 L 18.277344 10.828125 C 17.050781 10.828125 16.625 11.992188 16.625 13.300781 L 16.625 15.027344 L 20.21875 15.027344 L 19.730469 18.179688 L 16.625 18.179688 L 16.625 26.878906 C 22.480469 26.082031 27 21.074219 27 15 C 27 8.371094 21.628906 3 15 3 Z M 15 3 "/>
</g>
</svg>

<?xml version="1.0"?><svg fill="#000000" xmlns="http://www.w3.org/2000/svg"  viewBox="0 0 30 30" width="16px" height="16px">    <path d="M15,3C8.373,3,3,8.373,3,15c0,6.016,4.432,10.984,10.206,11.852V18.18h-2.969v-3.154h2.969v-2.099c0-3.475,1.693-5,4.581-5 c1.383,0,2.115,0.103,2.461,0.149v2.753h-1.97c-1.226,0-1.654,1.163-1.654,2.473v1.724h3.593L19.73,18.18h-3.106v8.697 C22.481,26.083,27,21.075,27,15C27,8.373,21.627,3,15,3z"/></svg>
